X: 20678
T: John Watt Henry's
R: reel
M: 4/4
K: Dmajor
A2 Ad B2 AF|DFAF EDB,D|A3 d B3 c|dBAF EFDF|
A2 AF B2 AF|DFAF EDB,D|A2 Ad BABc|dBAF EFAc||
d2 fd edfe|dfed dBAB|d2 fd edfe|dBAF EFAc|
d2 fd edfe|dfed dBAB|f2 fe dBAB|dBAF EDB,D||

